apps/explorer/src/assets/img/CoW-loading.svg

<svg fill="none" height="42" viewBox="0 0 46 42" width="46" xmlns="http://www.w3.org/2000/svg"><path d="m45.459 4.01812c-.4136-2.85909-9.7087-1.18156-12.1937-.73311-.1981.03578-.3528.06369-.4565.08092-.0719.01193-.1391-.04752-.1245-.11665.1428-.69169.246-2.561899-1.124-2.966795-.876-.2590767-1.4537.218912-1.7965.701145-.1534.21636-.6128 1.1516-.8982 1.80084-.1539.35062-.5121.86294-.9058.85368-1.6512-.49695-3.3098-.74549-4.9683-.74549-1.6584 0-3.3173.24854-4.9686.74549-.3935.00927-.7519-.50306-.9059-.85368-.2853-.64925-.7445-1.58449-.898-1.80084-.3428-.482179-.9202-.9602217-1.7963-.701145-1.3704.404896-1.2671 2.275105-1.124 2.966795.0144.06914-.0528.12854-.1249.11665-.1034-.01718-.2579-.04509-.4555-.08077-2.4836-.44828-11.780718-2.12646-12.194763.73296-.4238998 2.92803 3.406163 6.96598 7.413863 8.78078.21157.0958.39944.2278.5876.36.15583.1094.31176.219.48162.3083.63092.3319 1.00708 1.1602.91472 1.9074v10.4615c3.16006-2.1492 7.80526-3.4866 13.07016-3.4866s9.91 1.3374 13.0703 3.4867v-10.4616c-.0926-.7472.2834-1.5755.9142-1.9074.1703-.0894.3266-.1991.4826-.3088.1879-.132.3755-.2637.5867-.3595 4.0077-1.8147 7.8382-5.8527 7.4137-8.78078zm-23.7544 10.97708c-.1645.8547-1.6307 1.3902-2.8311 1.6895-.9582.2329-1.9402.35-2.9313.35-.2506 0-.5016-.0075-.753-.0224-.3883-.0235-.7216-.0917-1.0188-.2087-.5839-.2292-1.089-.6284-1.4598-1.1539-.5194-.7126-.72-1.5117-.574-2.3022.1422-.7879.6123-1.4706 1.3585-1.9719.5229-.3638 1.1367-.5714 1.7665-.5941.3246-.0112.6597.0354 1.0305.1412 1.1963.3418 2.3216.855 3.3442 1.5251 1.0279.6813 2.2188 1.672 2.0706 2.534zm11.5613.6631c-.364.5165-.869.9157-1.4537 1.1457-.2972.1166-.6301.1848-1.0184.2083-.2514.0149-.5031.0224-.7538.0224-.9907 0-1.972-.1171-2.9267-.3493-1.2038-.2996-2.6696-.8355-2.8353-1.6898-.1494-.8762 1.0408-1.8665 2.0656-2.5455 1.0272-.6731 2.1525-1.1863 3.348-1.5274.3693-.1058.7018-.1531 1.0286-.1412.631.0227 1.2448.2303 1.7772.6008.7374.4949 1.2072 1.1781 1.3494 1.9686.1456.7879-.055 1.5866-.5809 2.3074z" fill="#fff"/><path d="m18.8579 13.589c-.9009-.5903-1.8965-1.0443-2.9563-1.3469-.207-.0593-.3864-.0883-.5464-.0883-.0147 0-.0295.0003-.0439.0007-.3561.0127-.7083.1334-1.0181.3489-.4508.303-.7029.6563-.7807 1.0868-.0796.4308.0319.8445.3401 1.2679.2203.3119.5077.5404.8369.6697.1569.0619.348.0988.5842.113 1.1049.0667 2.2014-.0313 3.26-.2889.9608-.2393 1.4499-.4804 1.6789-.6246-.1645-.2106-.5391-.5975-1.3547-1.1383z" fill="#ffcf56"/><path d="m31.6992 12.5101c-.3192-.2222-.6715-.3429-1.0286-.3556-.1699-.003-.3629.0227-.5885.0872-1.0594.3023-2.055.7562-2.9604 1.3496-.813.5389-1.1868.925-1.3514 1.136.2294.1442.7193.3853 1.6827.6254 1.0545.2568 2.151.354 3.2559.2881.2366-.0142.4277-.0511.5842-.1126.3292-.1293.6166-.3582.8304-.6615.3151-.432.4266-.8453.3473-1.2736-.0777-.4334-.3299-.7867-.7716-1.083z" fill="#ffcf56"/><path d="m22.9915 24.0899c-8.5998 0-15.57089 3.8811-15.57089 8.6688s6.97109 8.6687 15.57089 8.6687 15.571-3.8811 15.571-8.6687-6.9714-8.6688-15.571-8.6688zm-7.3699 9.5547c-1.3325.6286-2.5732 0-2.8111-1.4255-.2608-1.5272 1.8679-5.1568 2.3576-2.4122.2802 1.5702 1.1134.9858 1.7779.5199.4968-.3485.8992-.6306.9049.1043-.073 1.3867-.9296 2.622-2.2293 3.2135zm17.5506-1.4255c-.2382 1.4255-1.4789 2.0541-2.8112 1.4255-1.2997-.5915-2.1565-1.8268-2.2289-3.2135.0055-.7349.4077-.4528.9044-.1044.6643.4659 1.4976 1.0504 1.778-.5198.4896-2.7446 2.6181.885 2.3577 2.4122z" fill="#fff"/></svg>

<svg class="cowLoading" width="46" height="42" viewBox="0 0 46 42" fill="none" xmlns="http://www.w3.org/2000/svg">
    <g class="cowLoading">
        <path
            d="M45.459 4.01812C45.0454 1.15903 35.7503 2.83656 33.2653 3.28501C33.0672 3.32079 32.9125 3.3487 32.8088 3.36593C32.7369 3.37786 32.6697 3.31841 32.6843 3.24928C32.8271 2.55759 32.9303 0.687381 31.5603 0.282485C30.6843 0.0234083 30.1066 0.501397 29.7638 0.98363C29.6104 1.19999 29.151 2.13523 28.8656 2.78447C28.7117 3.13509 28.3535 3.64741 27.9598 3.63815C26.3086 3.1412 24.65 2.89266 22.9915 2.89266C21.3331 2.89266 19.6742 3.1412 18.0229 3.63815C17.6294 3.64742 17.271 3.13509 17.117 2.78447C16.8317 2.13522 16.3725 1.19998 16.219 0.98363C15.8762 0.501451 15.2988 0.0234083 14.4227 0.282485C13.0523 0.687381 13.1556 2.55759 13.2987 3.24928C13.3131 3.31842 13.2459 3.37782 13.1738 3.36593C13.0704 3.34875 12.9159 3.32084 12.7183 3.28516C10.2347 2.83688 0.937582 1.1587 0.523537 4.01812C0.0996372 6.94615 3.9297 10.9841 7.9374 12.7989C8.14897 12.8947 8.33684 13.0267 8.525 13.1589C8.68083 13.2683 8.83676 13.3779 9.00662 13.4672C9.63754 13.7991 10.0137 14.6274 9.92134 15.3746V25.8361C13.0814 23.6869 17.7266 22.3495 22.9915 22.3495C28.2564 22.3495 32.9015 23.6869 36.0618 25.8362V15.3746C35.9692 14.6274 36.3452 13.7991 36.976 13.4672C37.1463 13.3778 37.3026 13.2681 37.4586 13.1584C37.6465 13.0264 37.8341 12.8947 38.0453 12.7989C42.053 10.9842 45.8835 6.9462 45.459 4.01812ZM21.7046 14.9952C21.5401 15.8499 20.0739 16.3854 18.8735 16.6847C17.9153 16.9176 16.9333 17.0347 15.9422 17.0347C15.6916 17.0347 15.4406 17.0272 15.1892 17.0123C14.8009 16.9888 14.4676 16.9206 14.1704 16.8036C13.5865 16.5744 13.0814 16.1752 12.7106 15.6497C12.1912 14.9371 11.9906 14.138 12.1366 13.3475C12.2788 12.5596 12.7489 11.8769 13.4951 11.3756C14.018 11.0118 14.6318 10.8042 15.2616 10.7815C15.5862 10.7703 15.9213 10.8169 16.2921 10.9227C17.4884 11.2645 18.6137 11.7777 19.6363 12.4478C20.6642 13.1291 21.8551 14.1198 21.7069 14.9818L21.7046 14.9952ZM33.2659 15.6583C32.9019 16.1748 32.3969 16.574 31.8122 16.804C31.515 16.9206 31.1821 16.9888 30.7938 17.0123C30.5424 17.0272 30.2907 17.0347 30.04 17.0347C29.0493 17.0347 28.068 16.9176 27.1133 16.6854C25.9095 16.3858 24.4437 15.8499 24.278 14.9956C24.1286 14.1194 25.3188 13.1291 26.3436 12.4501C27.3708 11.777 28.4961 11.2638 29.6916 10.9227C30.0609 10.8169 30.3934 10.7696 30.7202 10.7815C31.3512 10.8042 31.965 11.0118 32.4974 11.3823C33.2348 11.8772 33.7046 12.5604 33.8468 13.3509C33.9924 14.1388 33.7918 14.9375 33.2659 15.6583Z"
            fill="white" />
        <path
            d="M18.8579 13.589C17.957 12.9987 16.9614 12.5447 15.9016 12.2421C15.6946 12.1828 15.5152 12.1538 15.3552 12.1538C15.3405 12.1538 15.3257 12.1541 15.3113 12.1545C14.9552 12.1672 14.603 12.2879 14.2932 12.5034C13.8424 12.8064 13.5903 13.1597 13.5125 13.5902C13.4329 14.021 13.5444 14.4347 13.8526 14.8581C14.0729 15.17 14.3603 15.3985 14.6895 15.5278C14.8464 15.5897 15.0375 15.6266 15.2737 15.6408C16.3786 15.7075 17.4751 15.6095 18.5337 15.3519C19.4945 15.1126 19.9836 14.8715 20.2126 14.7273C20.0481 14.5167 19.6735 14.1298 18.8579 13.589Z"
            fill="#FFCF56" />
        <path
            d="M31.6992 12.5101C31.38 12.2879 31.0277 12.1672 30.6706 12.1545C30.5007 12.1515 30.3077 12.1772 30.0821 12.2417C29.0227 12.544 28.0271 12.9979 27.1217 13.5913C26.3087 14.1302 25.9349 14.5163 25.7703 14.7273C25.9997 14.8715 26.4896 15.1126 27.453 15.3527C28.5075 15.6095 29.604 15.7067 30.7089 15.6408C30.9455 15.6266 31.1366 15.5897 31.2931 15.5282C31.6223 15.3989 31.9097 15.17 32.1235 14.8667C32.4386 14.4347 32.5501 14.0214 32.4708 13.5931C32.3931 13.1597 32.1409 12.8064 31.6992 12.5101Z"
            fill="#FFCF56" />
        <path
            d="M22.9915 24.0899C14.3917 24.0899 7.42061 27.971 7.42061 32.7587C7.42061 37.5464 14.3917 41.4274 22.9915 41.4274C31.5913 41.4274 38.5625 37.5463 38.5625 32.7587C38.5625 27.9711 31.5911 24.0899 22.9915 24.0899ZM15.6216 33.6446C14.2891 34.2732 13.0484 33.6446 12.8105 32.2191C12.5497 30.6919 14.6784 27.0623 15.1681 29.8069C15.4483 31.3771 16.2815 30.7927 16.946 30.3268C17.4428 29.9783 17.8452 29.6962 17.8509 30.4311C17.7779 31.8178 16.9213 33.0531 15.6216 33.6446ZM33.1722 32.2191C32.934 33.6446 31.6933 34.2732 30.361 33.6446C29.0613 33.0531 28.2045 31.8178 28.1321 30.4311C28.1376 29.6962 28.5398 29.9783 29.0365 30.3267C29.7008 30.7926 30.5341 31.3771 30.8145 29.8069C31.3041 27.0623 33.4326 30.6919 33.1722 32.2191Z"
            fill="white" />
    </g>
</svg>
